X:588
T: HAT EINS GESCHLAGEN
N: E1899
O: Europa, Mitteleuropa, Deutschland, Sachsen, Dresden
R: Kinder - Lied, Zaehl - Spiel
M: 6/8
L: 1/8
K: G
D | G2GGGB | GGGD2
D | G2GGGB | GGGD2
D | G2GGGG | d2z3
F | G2GGGG | d2z3
D | G2GGGd | G2z3

@@@ Tune index: 5272
